src/travel-places/sky-weather/1F32C.svg

<?xml version="1.0" encoding="UTF-8"?>
<svg id="emoji" xmlns="http://www.w3.org/2000/svg" viewBox="0 0 72 72">
  <g id="grid">
    <path d="m68,4v64H4V4h64M72,0H0v72h72V0Z" fill="#b3b3b3"/>
    <path d="m12.923,10.9583h46.1539c1.0621,0,1.9231.861,1.9231,1.9231h0v46.1538c0,1.0621-.861,1.9231-1.9231,1.9231H12.9231c-1.0621,0-1.9231-.861-1.9231-1.9231h0V12.8813c0-1.062.861-1.923,1.923-1.923h0Z" fill="none" stroke="#00a5ff" stroke-miterlimit="10" stroke-width=".1"/>
    <rect x="16" y="4" width="40" height="64" rx="2.2537" ry="2.2537" fill="none" stroke="#00a5ff" stroke-miterlimit="10" stroke-width=".1"/>
    <rect x="4" y="16" width="64" height="40" rx="2.2537" ry="2.2537" fill="none" stroke="#00a5ff" stroke-miterlimit="10" stroke-width=".1"/>
    <circle cx="36" cy="36" r="29" fill="none" stroke="#00a5ff" stroke-miterlimit="10" stroke-width=".1"/>
  </g>
  <g id="color">
    <path d="m14.5968,29.9075c-.0396.4525-.4062.8186-.8602.8673-5.5036.5895-9.7366,6.0085-9.7366,12.6046,0,6.9899,4.8475,13.3716,10.8272,13.3716h41.2775c1.3997-.037,2.5589-.1579,3.7218-.551,3.1992-1.5711,8.1735-6.7931,8.1735-13.5393,0-7.079-4.8912-12.8736-11.0809-13.3441-.4735-.036-.8576-.3674-.9479-.8313-1.3827-7.1005-7.7614-12.4363-15.3028-12.4363-4.9012,0-9.2671,2.2189-12.1023,5.7487-.277.3449-.742.503-1.151.3315-1.091-.4575-2.2432-.6789-3.5324-.6789-4.8718,0-8.8707,3.7179-9.2859,8.4572Z" fill="#d0cfce"/>
  </g>
  <g id="line">
    <path d="m59.4442,55.4591c4.944-1.6229,8.5558-6.7575,8.5558-12.8408,0-7.079-4.8912-12.8736-11.0809-13.3441-.4735-.036-.8576-.3674-.9479-.8313-1.3827-7.1005-7.7614-12.4363-15.3028-12.4363-4.9012,0-9.2671,2.2189-12.1023,5.7487-.277.3449-.742.503-1.151.3315-1.091-.4575-2.2432-.6789-3.5324-.6789-4.8718,0-8.8707,3.718-9.2859,8.4573-.0396.4525-.4062.8186-.8602.8673-5.5036.5895-9.7366,6.0085-9.7366,12.6046,0,6.9899,4.8475,12.6562,10.8272,12.6562h36.2187" fill="none" stroke="#000" stroke-linecap="round" stroke-linejoin="round" stroke-width="2"/>
    <path d="m31.686,32.062c-1.2083.9992-2.7458,1.5119-4.312,1.438-1.5664.0745-3.1043-.4379-4.313-1.437" fill="none" stroke="#000" stroke-linecap="round" stroke-linejoin="round" stroke-width="2"/>
    <path d="m48.939,32.062c-1.2083.9992-2.7458,1.5119-4.312,1.438-1.5664.0745-3.1043-.4379-4.313-1.437" fill="none" stroke="#000" stroke-linecap="round" stroke-linejoin="round" stroke-width="2"/>
    <path d="m39.6114,45.3333c1.6569,0,3-1.1379,3-2.5417,0-1.0528-.7555-1.9561-1.8323-2.3419-.3589-.1286-.7535-.1997-1.1677-.1997" fill="none" stroke="#000" stroke-linecap="round" stroke-linejoin="round" stroke-width="2"/>
    <path d="m39.1843,50.4062c.9401,0,2.0159-.5708,2.3309-1.472.5041-1.4419-.3552-3.0541-1.9192-3.6009" fill="none" stroke="#000" stroke-linecap="round" stroke-linejoin="round" stroke-width="2"/>
    <path d="m62.3636,45.5589c2.1545-3.308,2.0114-7.9339-1.9915-9.7984-1.7893-.8334-3.8681-.6097-4.9454,1.0444-.5386.827-.3048,1.9341.5222,2.4727" fill="none" stroke="#000" stroke-linecap="round" stroke-linejoin="round" stroke-width="2"/>
    <path d="m46.0899,46.5506c4.7602,2.7667,12.0053,5.3518,16.2737-.9917" fill="none" stroke="#000" stroke-linecap="round" stroke-linejoin="round" stroke-width="2"/>
    <path d="m55.7258,59.2062c-.2065,1.8432-1.8674,3.2117-3.7107,3.0052-1.5499-.1736-2.7348-1.376-2.9498-2.8502" fill="none" stroke="#000" stroke-linecap="round" stroke-linejoin="round" stroke-width="1.9066"/>
    <path d="m46.3213,46.5506s10.2039,5.4508,9.4045,12.6556" fill="none" stroke="#000" stroke-linecap="round" stroke-linejoin="round" stroke-width="1.9066"/>
  </g>
</svg>

<svg id="emoji" viewBox="0 0 72 72" xmlns="http://www.w3.org/2000/svg">
  <g id="grid">
    <path fill="#b3b3b3" d="M68,4V68H4V4H68m4-4H0V72H72V0Z"/>
    <path fill="none" stroke="#00a5ff" stroke-miterlimit="10" stroke-width="0.1" d="M12.923,10.9583H59.0769A1.9231,1.9231,0,0,1,61,12.8814V59.0352a1.9231,1.9231,0,0,1-1.9231,1.9231H12.9231A1.9231,1.9231,0,0,1,11,59.0352V12.8813A1.923,1.923,0,0,1,12.923,10.9583Z"/>
    <rect x="16" y="4" rx="2.2537" width="40" height="64" fill="none" stroke="#00a5ff" stroke-miterlimit="10" stroke-width="0.1"/>
    <rect x="16" y="4" rx="2.2537" width="40" height="64" transform="translate(72) rotate(90)" fill="none" stroke="#00a5ff" stroke-miterlimit="10" stroke-width="0.1"/>
    <circle cx="36" cy="36" r="29" fill="none" stroke="#00a5ff" stroke-miterlimit="10" stroke-width="0.1"/>
  </g>
  <g id="color">
    <path fill="#d0cfce" stroke="none" d="M14.5968,29.9075c-0.0396,0.4525-0.4062,0.8186-0.8602,0.8673C8.233,31.3643,4,36.7833,4,43.3794 C4,50.3693,8.8475,56.751,14.8272,56.751h41.2775c1.3997-0.037,2.5589-0.1579,3.7218-0.551C63.0257,54.6289,68,49.4069,68,42.6607 c0-7.079-4.8912-12.8736-11.0809-13.3441c-0.4735-0.036-0.8576-0.3674-0.9479-0.8313 c-1.3827-7.1005-7.7614-12.4363-15.3028-12.4363c-4.9012,0-9.2671,2.2189-12.1023,5.7487c-0.277,0.3449-0.742,0.503-1.151,0.3315 c-1.091-0.4575-2.2432-0.6789-3.5324-0.6789C19.0109,21.4502,15.012,25.1682,14.5968,29.9075z"/>
  </g>
  <g id="hair"/>
  <g id="skin"/>
  <g id="skin-shadow"/>
  <g id="line">
    <path fill="none" stroke="#000000" stroke-linecap="round" stroke-linejoin="round" stroke-miterlimit="10" stroke-width="2" d="M59.4442,55.4591C64.3882,53.8362,68,48.7016,68,42.6183c0-7.079-4.8912-12.8736-11.0809-13.3441 c-0.4735-0.036-0.8576-0.3674-0.9479-0.8313c-1.3827-7.1005-7.7614-12.4363-15.3028-12.4363 c-4.9012,0-9.2671,2.2189-12.1023,5.7487c-0.277,0.3449-0.742,0.503-1.151,0.3315c-1.091-0.4575-2.2432-0.6789-3.5324-0.6789 c-4.8718,0-8.8707,3.718-9.2859,8.4573c-0.0396,0.4525-0.4062,0.8186-0.8602,0.8673C8.233,31.322,4,36.741,4,43.3371 c0,6.9899,4.8475,12.6562,10.8272,12.6562l36.2187,0"/>
    <path fill="none" stroke="#000000" stroke-linecap="round" stroke-linejoin="round" stroke-width="2" d="M31.686,32.062 c-1.2083,0.9992-2.7458,1.5119-4.312,1.438c-1.5664,0.0745-3.1043-0.4379-4.313-1.437"/>
    <path fill="none" stroke="#000000" stroke-linecap="round" stroke-linejoin="round" stroke-width="2" d="M48.939,32.062 c-1.2083,0.9992-2.7458,1.5119-4.312,1.438c-1.5664,0.0745-3.1043-0.4379-4.313-1.437"/>
    <path fill="none" stroke="#000000" stroke-linecap="round" stroke-linejoin="round" stroke-miterlimit="10" stroke-width="2" d="M39.6114,45.3333c1.6569,0,3-1.1379,3-2.5417c0-1.0528-0.7555-1.9561-1.8323-2.3419c-0.3589-0.1286-0.7535-0.1997-1.1677-0.1997"/>
    <path fill="none" stroke="#000000" stroke-linecap="round" stroke-linejoin="round" stroke-miterlimit="10" stroke-width="2" d="M39.1843,50.4062c0.9401,0,2.0159-0.5708,2.3309-1.472c0.5041-1.4419-0.3552-3.0541-1.9192-3.6009"/>
    <path fill="none" stroke="#000000" stroke-linecap="round" stroke-linejoin="round" stroke-miterlimit="10" stroke-width="2" d="M62.3636,45.5589c2.1545-3.308,2.0114-7.9339-1.9915-9.7984c-1.7893-0.8334-3.8681-0.6097-4.9454,1.0444 c-0.5386,0.827-0.3048,1.9341,0.5222,2.4727"/>
    <path fill="none" stroke="#000000" stroke-linecap="round" stroke-linejoin="round" stroke-miterlimit="10" stroke-width="2" d="M46.0899,46.5506c4.7602,2.7667,12.0053,5.3518,16.2737-0.9917"/>
    <path fill="none" stroke="#000000" stroke-linecap="round" stroke-linejoin="round" stroke-miterlimit="10" stroke-width="2" d="M55.955,59.826c-0.2166,1.9335-1.9589,3.369-3.8924,3.1524c-1.6258-0.1821-2.8687-1.4434-3.0943-2.9898"/>
    <path fill="none" stroke="#000000" stroke-linecap="round" stroke-linejoin="round" stroke-miterlimit="10" stroke-width="2" d="M46.0899,46.5506c0,0,10.7036,5.7177,9.8651,13.2754"/>
  </g>
</svg>
